X: 1127
T: An Alarc'h
R: polka
M: 2/4
K: Gminor
D GA|B2 G2|[M:3/4] FF G D GA|
[M:2/4] B2 G2|[M:3/4] FF G3 B|[M:2/4] Bc dd|cB B2|
A4|GA B G/G/|GG/F/ G2|D4|
GA BG/G/|GF (G2|G4)|

